_editor/libs/builder/icons/bell.svg

<svg fill="none" height="24" viewBox="0 0 24 24" width="24" xmlns="http://www.w3.org/2000/svg"><g stroke="#000"><path d="m19.22 13.5272-11.07994 4.6081c-.50994.2121-1.09598-.0417-1.0977-.594-.00428-1.3724.73209-3.0347.53677-4.2269-.65216-3.98042-1.51142-6.95268 1.62081-8.25536 3.15166-1.31075 4.62286 1.35017 6.99696 4.67127.6965.97439 2.4032 1.61769 3.3777 2.59819.3893.3918.1554.9866-.3546 1.1987z"/><path d="m12.8518 17.4823c.2104.5106-.0329 1.0951-.5436 1.3055-.5106.2104-1.0951-.033-1.3055-.5436" stroke-linecap="round"/></g></svg>

<?xml version="1.0" ?><svg fill="none" height="24" viewBox="0 0 24 24" width="24" xmlns="http://www.w3.org/2000/svg"><path d="M19.22 13.5272L8.14006 18.1353C7.63012 18.3474 7.04408 18.0936 7.04236 17.5413C7.03808 16.1689 7.77445 14.5066 7.57913 13.3144C6.92697 9.33398 6.06771 6.36172 9.19994 5.05904C12.3516 3.74829 13.8228 6.40921 16.1969 9.73031C16.8934 10.7047 18.6001 11.348 19.5746 12.3285C19.9639 12.7203 19.73 13.3151 19.22 13.5272Z" stroke="black"/><path d="M12.8518 17.4823C13.0622 17.9929 12.8189 18.5774 12.3082 18.7878C11.7976 18.9982 11.2131 18.7548 11.0027 18.2442" stroke="black" stroke-linecap="round"/></svg>
